X:1
T:Bring Ye All the Tithes
T:Bring Ye All the Tithes
T:Henry Lake Gilmour
T:Helen E. Rasmussen, 1899
T:Public Domain Courtesy of the Cyber Hymnal™
T:Public Domain Courtesy of the Cyber Hymnal™
C:Henry Lake Gilmour
Z:Public Domain
Z:Courtesy of the Cyber Hymnal™
%%score ( 1 2 ) ( 3 4 )
L:1/8
Q:1/4=95
M:4/4
K:F
V:1 treble 
V:2 treble 
V:3 bass 
V:4 bass 
V:1
 [FA]>[FA] [FA]>[FA] [Fc]>[Fc] [CF]>[CE] | [B,D]2 [B,D]2 (G2 F2) | %2
w: 1.~Hear the words of Scrip- ture from the|ag- es past, *|
w: 2.~Do you seek to know the Ho- ly|Spir- it’s power? *|
w: 3.~Is there aught that stands be- tween you|and your Lord? *|
w: 4.~Lift your heart this mo- ment: claim Him|Lord and King, *|
w: 5.~Let the an- thems roll in grand- eur|thro’ the skies, *|
 [B,E]>[B,E] [B,E]>[B,D] [B,C]>[EB] [EA]>[EG] | [CF]4 C4 | %4
w: “Bring ye all the tithes in- to the|store- house”;|
w: “Bring ye all the tithes in- to the|store- house.”|
w: “Bring ye all the tithes in- to the|store- house.”|
w: As ye bring the tithes in- to the|store- house.|
w: Hav- ing brought the tithes in- to the|store- house;|
 [FA]>[FA] [FA]>[FA] [Fc]>[Fc] [CF]>[CE] | [B,D]2 [B,D]2 (G2 A2) | %6
w: Make a con- se- cra- tion that will|ev- er last, *|
w: Live in sweet com- mun- ion with Him|hour by hour, *|
w: Bring them on con- di- tions prom- ised|in His Word, *|
w: Trust the bless- èd prom- ise, and your|praise shall ring, *|
w: Joy- ous hal- le- lu- jahs from our|hearts a- rise, *|
 [DB]>[DB] [DG]>[DG] [CE]2 [CE]2 | G4 !fermata![CF]2 ||"^Refrain" C>C | %9
w: Trust- ing for the prom- ised|bless- ing.||
w: While He gives the prom- ised|bless- ing.||
w: And He’ll pour you out a|bless- ing.|“Bring ye|
w: From the heart He is pos-|sess- ing.||
w: For we have the prom- ised|bless- ing.||
 [CF]3 [CG] [FA]>[CG] [CF]>[Fd] | [Fc]4 [FA]2 [Ac]2 | [GB]2 [FA]2 [EG]2 c>B | A2 G2 F2 C2 | %13
w: ||||
w: ||||
w: all the tithes in- to the|store- house, And|prove Me now,” saith the|Lord of hosts; “And|
w: ||||
w: ||||
 [CF]3 [CG] [FA]>[CG] [CF]>[Fd] | [Fc]4 [FA]2 [FA]>[FA] | [EB]>[EB] [CG]>[CG] [CE]2 [CD]>[CE] | %16
w: |||
w: |||
w: I will pour you out a|bless- ing; There shall|not be room e- nough to re-|
w: |||
w: |||
 [EG]4 [CF]4 |] %17
w: |
w: |
w: ceive it.”|
w: |
w: |
V:2
 x8 | x4 D4 | x8 | x4 C4 | x8 | x4 D4 | x8 | (E2 C2) x2 || C>C | x8 | x8 | x6 c>B | A2 G2 F2 C2 | %13
 x8 | x8 | x8 | x8 |] %17
V:3
 [F,C]>[F,C] [F,C]>[F,C] [F,A,]>[F,A,] [A,,F,]>[A,,F,] | [B,,F,]2 [B,,F,]2 [G,,B,]4 | %2
 [C,G,]>[C,G,] [C,G,]>[F,A,] [E,G,]>[C,G,] [C,C]>[C,B,] | [F,A,]4 [F,A,]4 | %4
 [F,C]>[F,C] [F,C]>[F,C] [F,A,]>[F,A,] [A,,F,]>[A,,F,] | [B,,F,]2 [B,,F,]2 ([B,,B,]2 [A,,^F,]2) | %6
 [G,,G,]>[G,,G,] [B,,G,]>[B,,G,] [C,G,]2 [C,G,]2 | [C,B,]4 !fermata![F,A,]2 || [F,A,]>[F,A,] | %9
 [F,A,]3 [F,B,] [F,C]>[F,B,] [F,A,]>[F,B,] | [F,A,]4 [F,C]2 [F,C]2 | [E,C]2 [F,C]2 [C,C]2 C>B, | %12
 A,2 G,2 F,2 [F,A,]2 | [F,A,]3 [F,B,] [F,C]>[F,B,] [F,A,]>[F,B,] | [F,A,]4 [F,C]2 [F,C]>[F,C] | %15
 [G,C]>[G,C] [E,B,]>[E,B,] [C,G,]2 [C,B,]>[C,B,] | [C,B,]4 [F,A,]4 |] %17
V:4
 x8 | x8 | x8 | x8 | x8 | x8 | x8 | x6 || x2 | x8 | x8 | x6 C>B, | A,2 G,2 F,2 x2 | x8 | x8 | x8 | %16
 x8 |] %17

